X: 35
T: 250 To Vigo
R: reel
M: 4/4
K: Bminor
|"Bm" B2fzBf2B|"Bm5"=f4 edBA|"Bm"B2fzBf2B|"Bm5" =f4 edBA|
"Bm"B2fzBf2B|"Bm5" =f4 edBA|"Bm"B2fzBf2B|e8||

